!!!!SEGMENT: pl-kk--kk-i-70--002-002_anonim--missa-6ta-et-in-terra.krn
!!!cenid: 17xx:2298
!!!COM: Anonim
!!!COM-rismid: pe30004985
!!!CDT:
!!!CNT:
!!!OPR: Missa 6ta
!!!OTL: Et in terra
!!!OMV: 002
!!!PDT:
!!!AGN: Sacred; Mass
!!!SMS-siglum: PL-Kk
!!!SMS-shelfmark: Kk.I.70
!!!SMS-shelfwork: 002-002 M
!!!SMS-variant: Baſso: PL-Kk Kk.I.70:018-019
!!!SMS-altvar: Baſso: PL-Kk Kk.I.70:023-024
!!!NIFC-rismid: 1001154792
!!!URL-scan: http://repozytorium.nifc.pl/skany/pl-kk-nut--i-70
!!!ONB-nifc: UWAGA: w zbiorze Msza 5ta i 6ta. Części Mszy: 1. Kyrie, 2. Et in terra, 3. Sanctus, 4. Agnus Dei
!!!AIN: 1 alto 1 empty 1 tenor 1 vox
!!!key:
**kern	**text	**kern	**text	**kern	**text	**kern	**text
*part4	*part4	*part3	*part3	*part2	*part2	*part1	*part1
*staff4	*staff4	*staff3	*staff3	*staff2	*staff2	*staff1	*staff1
*Iempty	*	*Itenor	*	*Ialto	*	*Ivox	*
*I"Baſso	*	*I"Tenore	*	*I"Alto.	*	*I"Canto	*
*I'B	*	*I'T	*	*I'A	*	*I'S	*
*clefF4	*	*clefC4	*	*clefC3	*	*clefC1	*
*k[]	*	*k[]	*	*k[]	*	*k[]	*
*C:	*	*C:	*	*C:	*	*C:	*
*M2/2	*	*M2/2	*	*M2/2	*	*M2/2	*
*met(c|)	*	*met(c|)	*	*met(c|)	*	*met(c|)	*
=1	=1	=1	=1	=1	=1	=1	=1
!LO:TX:a:t=modto	!	!LO:TX:a:t=modto	!	!LO:TX:a:t=modto	!	!LO:TX:a:t=modto	!
4.c\	Et	4.c\	Et	4.e\	Et	4.g\	Et
8G\	in	8c\	in	8e\	in	8g\	in
8F\L	ter-	4c\	ter-	8a\L	ter-	4g\	ter-
8E\J	.	.	.	8g\J	.	.	.
8D\L	-ra	8B\L	-ra	8f\L	-ra	4g\	-ra
8C\J	.	8c\J	.	8e\J	.	.	.
=2	=2	=2	=2	=2	=2	=2	=2
4.G\	pax	4.B\	pax	4.d\	pax	4.g\	pax
8D\	ho-	8B\	ho-	8g\	ho-	8g\	ho-
8C/L	-mi-	4d\	-mi-	4g\	-mi-	8g\L	-mi-
8BB/J	.	.	.	.	.	8dd\J	.
8AA/	-ni-	8d\	-ni-	8g\	-ni-	8cc\	-ni-
8GG/	-bus	8d\	-bus	8g\	-bus	8b\	-bus
=3	=3	=3	=3	=3	=3	=3	=3
8C/L	bo-	8c\L	bo-	8e\L	bo-	4g/	bo-
8BB/J	.	8d\J	.	8d\J	.	.	.
8C/L	-nae	8c\L	-nae	8e\L	-nae	4g/	-nae
8D/J	.	8B\J	.	8f\J	.	.	.
8C/L	vo-	4c\	vo-	8e\L	vo-	4g/	vo-
8E/J	.	.	.	8g\J	.	.	.
8D/L	-lun-	8B\L	-lun-	8f\L	-lun-	4g/	-lun-
8C/J	.	8c\J	.	8e\J	.	.	.
=4	=4	=4	=4	=4	=4	=4	=4
4G\	-ta-	4c\	-ta-	4e\	-ta-	4g/	-ta-
8GG/	-tis	8B\	-tis.	8d\	-tis	8g/	-tis.
8G\	Lau-	8B\	Lau-	8g\	Lau-	8g/	Lau-
!LO:LB:g=original	!	!	!	!	!	!	!
4B\	-da-	4d\	-da-	4g\	-da-	4g/	-da-
4G\	-mus	4B\	-mus	4g\	-mus	4g/	-mus
!	!	!LO:LB:g=original	!	!LO:LB:g=original	!	!LO:LB:g=original	!
=5	=5	=5	=5	=5	=5	=5	=5
4c\	te	4e\	te	4g\	te,	4g\	te.
8C/	be-	8c\	be-	8e\	be-	8g\	be-
8C/	-ne-	8c\	-ne-	8e\	-ne-	8g\	-ne-
4E/	-di-	4c\	-di-	4g\	-di-	4b-X\	-di-
8C/	-ci-	8c\	-ci-	8e\	-ci-	8g\	-ci-
8C/	-mus	8c\	-mus	8e\	-mus	8g\	-mus
=6	=6	=6	=6	=6	=6	=6	=6
4F\	te,	4c\	te	4f\	te.	4a\	te,
8D\	a-	8d\	a-	8f#X\	a-	8cc\	a-
8D\	-do-	8d\	-do-	8f#\	-do-	8cc\	-do-
4F#X\	-ra-	4d\	-ra-	4a\	-ra-	4cc\	-ra-
4D\	-mus	4d\	-mus	4f#\	-mus	4cc\	-mus
=7	=7	=7	=7	=7	=7	=7	=7
4G\	te	4d\	te	4g\	te	4bn\	te.
4B\	glo-	4d\	glo-	4g\	glo-	4g\	glo-
4G\	-ri-	4B\	-ri-	4d\	-ri-	4g\	-ri-
4B\	-fi-	4d\	-fi-	4g\	-fi-	4g\	-fi-
=8	=8	=8	=8	=8	=8	=8	=8
*	*	*2\right	*	*2\right	*	*2\right	*
8c\L	-ca-	2e\	-ca-	2g\	-ca-	2cc\	-ca-
8G\	.	.	.	.	.	.	.
8E\	.	.	.	.	.	.	.
8C\J	.	.	.	.	.	.	.
4G\	.	4e\	.	4g\	.	4cc\	.
4GG/	-mus	4d\	-mus	4g\	-mus	4b\	-mus
=9	=9	=9	=9	=9	=9	=9	=9
2C/	te	2e\	te	2g\	te	2cc\	te
2r	.	2r	.	2r	.	2r	.
!LO:LB:g=original	!	!LO:LB:g=original	!	!LO:LB:g=original	!	!LO:LB:g=original	!
=10	=10	=10	=10	=10	=10	=10	=10
4A\	Gra-	4c\	gra-	4e\	gra-	4a\	gra-
8G#X\	-ti-	8d\	-ti-	8e\	-ti-	8b\	-ti-
8A\	-as	8c\	-as	8e\	-as	8a\	-as
8B\L	a-	8d\L	a-	4e\	a-	8g#X\L	a-
8A\J	.	8c\J	.	.	.	8a\J	.
8G#\	-gi-	8d\	-gi-	8e\	-gi-	8b\	-gi-
8A\	-mus	8c\	-mus	8e\	-mus	8a\	-mus
=11	=11	=11	=11	=11	=11	=11	=11
4E\	ti-	4B\	ti-	4e\	ti-	4g#X\	ti-
4E\	-bi	4B\	-bi	4e\	-bi	4g#\	-bi
4G#X\	pro-	4B\	pro-	4e\	pro-	4b\	pro-
4B\	-pter	4d\	-pter	4g#X\	-pter	4ee\	-pter
=12	=12	=12	=12	=12	=12	=12	=12
!	!	!	!	!LO:SIC:v:s=4g#\	!	!	!
8d\L	ma-	8B\L	ma-	4g\	ma-	4ee\	ma-
8B\J	.	8d\J	.	.	.	.	.
!	!	!	!	!LO:SIC:v:s=4g#\	!	!	!
8G#X\L	-gnam	4B\	-gnam	4g\	-gnam	4ee\	-gnam
8E\J	.	.	.	.	.	.	.
8A\L	glo-	4c\	glo-	4e\	glo-	4a\	glo-
8E\J	.	.	.	.	.	.	.
8C/	-ri-	8c\	-ri-	8e\	-ri-	8a\	-ri-
8AA/	-am	8c\	-am	8e\	-am	8a\	-am
=13	=13	=13	=13	=13	=13	=13	=13
4D/	tu-	4B\	tu-	2f\	tu-	4g#X\	tu-
4BB/	.	4d\	.	.	.	4b\	.
*2\right	*	*	*	*	*	*	*
2E\	.	4c\	.	2e\	.	4a\	.
.	.	4B\	.	.	.	4g#X\	.
=14	=14	=14	=14	=14	=14	=14	=14
2AA/	-am	2c\	-am	2e\	-am.	2a\	-am.
!LO:LB:g=original	!	!LO:LB:g=original	!	!	!	!	!
4A\	Do-	4c#\	Do-	4e\	Do-	4a\	Do-
8G\	-mi-	8c#\	-mi-	8e\	-mi-	8a\	-mi-
8G\	-ne	8c#\	-ne	8e\	-ne	8a\	-ne
!	!	!	!	!LO:LB:g=original	!	!LO:PB:g=original	!
=15	=15	=15	=15	=15	=15	=15	=15
8F\L	De-	8d\L	De-	8f\L	De-	4a\	De-
8E\J	.	8e\J	.	8g\J	.	.	.
4D\	-us	4f\	-us	4a\	-us	4a\	-us
4A\	rex	4c#X\	rex	4e\	rex	4a\	rex
4G\	cae-	4c#\	cae-	4e\	cae-	4a\	cae-
=16	=16	=16	=16	=16	=16	=16	=16
8F\L	-les-	8d\L	-les-	8f\L	-les-	4a\	-les-
8E\J	.	8e\J	.	8g\J	.	.	.
4D\	-tis	4f\	-tis	4a\	-tis	4a\	-tis
4C#X\	De-	4g\	De-	4b-X\	De-	4ee\	De-
4D\	-us	4f\	-us	4a\	-us	4dd\	-us
=17	=17	=17	=17	=17	=17	=17	=17
!	!	!	!	!LO:SIC:v:s=4b-\	!	!	!
4G\	Pa-	4e\	Pa-	4b\	Pa-	4ee\	Pa-
8F\	-ter	8d\	-ter	8a\	-ter	8dd\	-ter
8G\	o-	8e\	o-	8g\	om-	8cc#X\	om-
4A\	-mni-	4d\	-mni-	4f\	-ni-	4a\	-ni-
4AA/	-po-	4c#X\	-po-	4e\	-po-	4a\	-po-
=18	=18	=18	=18	=18	=18	=18	=18
2D\	-tens.	2d\	-tens	2f\	-tens.	2a\	-tens.
4G\	Do-	4B\	Do-	4e\	Do-	4gn/	Do-
8Fn\	-mi-	8B\	-mi-	8g\	-mi-	8g/	-mi-
8F\	-ne	8B\	-ne	8g\	-ne	8g/	-ne
!LO:PB:g=original	!	!LO:PB:g=original	!	!	!	!	!
=19	=19	=19	=19	=19	=19	=19	=19
8E\L	fi-	8c\L	fi-	8g\L	fi-	4g/	fi-
8D\J	.	8d\J	.	8f\J	.	.	.
4C\	-li	4e\	-li	4e\	-li	4g/	-li
!	!	!	!	!	!	!LO:LB:g=original	!
4G\	u-	4B\	u-	4d\	u-	4g/	u-
4F\	-ni	4d\	-ni	4g\	-ni-	4g/	-ni-
!	!	!	!	!LO:PB:g=original	!	!	!
=20	=20	=20	=20	=20	=20	=20	=20
8E\	ge-	8c\	ge-	8g\	-ge-	8g/	-ge-
8D\	-ni-	8d\	-ni-	8g\	-ni-	8g/	-ni-
4C\	-te	4e\	-te	4g\	-te	4g/	-te
4BB/	Je-	4f\	Je-	4g\	Je-	4dd\	Je-
4C/	-su	4e\	-su	4g\	-su	4cc\	-su
=21	=21	=21	=21	=21	=21	=21	=21
4F\	Chri-	2d\	Chri-	4a\	Chri-	4a\	Chri-
4D\	.	.	.	4f\	.	4b\	.
4G\	.	4e\	.	2g\	.	4cc\	.
4GG/	.	4d\	.	.	.	4b\	.
=22	=22	=22	=22	=22	=22	=22	=22
2C/	-ste.	2e\	-ste.	2g\	-ste.	2cc\	-ste
4c\	Do-	4e\	Do-	4g\	Do-	4cc\	Do-
8G\	-mi-	8d\	-mi-	8f\	-mi-	8b\	-mi-
8G\	-ne	8d\	-ne	8f\	-ne	8b\	-ne
=23	=23	=23	=23	=23	=23	=23	=23
8E\L	De-	8c\L	De-	8g\L	De-	4g/	De-
8D\J	.	8B\J	.	8f\J	.	.	.
4C\	-us	4c\	-us	4e\	-us	4g/	-us
!	!	!LO:LB:g=original	!	!	!	!	!
8C\L	a-	8c\L	a-	8e\L	a-	4g/	a-
8D\J	.	8B\J	.	8f\J	.	.	.
8E\L	-gnus	4c\	-gnus	8g\L	-gnus	4g/	-gnus
8F\J	.	.	.	8a\J	.	.	.
!LO:LB:g=original	!	!	!	!	!	!	!
=24	=24	=24	=24	=24	=24	=24	=24
4G\	De-	4d\	De-	4g\	De-	4b\	De-
4G\	-i	4d\	-i	4g\	-i	4b\	-i
!	!	!	!	!	!	!LO:LB:g=original	!
4d\	fi-	4f\	fi-	4g\	fi-	4b\	fi-
8B\	-li-	8d\	-li-	8g\	-li-	8ff\	-li-
8G\	-us	8B\	-us	8g\	-us	8dd\	-us
!	!	!	!	!LO:LB:g=original	!	!	!
=25	=25	=25	=25	=25	=25	=25	=25
4c\	Pa-	2c\	Pa-	4g\	Pa-	4ee\	Pa-
4A\	.	.	.	4f\	.	4cc\	.
4F\	.	4d\	.	4a\	.	4a\	.
4G\	.	4B\	.	4g\	.	4dd\	.
=26	=26	=26	=26	=26	=26	=26	=26
2C/	-tris	2c\	-tris	2g\	-tris.	2ee\	-tris
4r	.	4r	.	4r	.	4r	.
4A\	qui	4c\	qui	4e\	qui	4a\	qui
=27	=27	=27	=27	=27	=27	=27	=27
2G#X\	tol-	2d\	tol-	2f\	tol-	2b\	tol-
2G#\	-lis	2d\	-lis	2f\	-lis	2b\	-lis
=28	=28	=28	=28	=28	=28	=28	=28
4r	.	4r	.	4r	.	4r	.
!LO:SIC:v:s=4G#\	!	!	!	!	!	!	!
4G\	pec-	4B\	pec-	4f\	pec-	4dd\	pec-
4A\	-ca-	4c\	-ca-	4e\	-ca-	4cc\	-ca-
!LO:SIC:v:s=4G#\	!	!	!	!	!	!	!
4G\	-ta	4B\	-ta	4e\	-ta	4dd\	-ta
!	!	!LO:LB:g=original	!	!	!	!	!
=29	=29	=29	=29	=29	=29	=29	=29
1A	mun-	4A\	mun-	4c\	mun-	2cc\	mun-
.	.	4c\	.	4e\	.	.	.
.	.	4B\	.	4d\	.	2a\	.
.	.	4A\	.	4c\	.	.	.
=30	=30	=30	=30	=30	=30	=30	=30
4G#X\	-di	4B\	-di	4e\	-di	4b\	-di
8E\	mi-	8B\	mi-	8g#X\	mi-	8dd\	mi-
8E\	-s-	8B\	-se-	8g#\	-se-	8dd\	-se-
!LO:LB:g=original	!	!	!	!	!	!	!
4F\	-re-	4c\	-re-	4a\	-re-	4cc\	-re-
4G#X\	-re	4d\	-re	4b\	-re	4ee\	-re
!	!	!	!	!LO:LB:g=original	!	!LO:LB:g=original	!
=31	=31	=31	=31	=31	=31	=31	=31
4A\	no-	2c\	no-	2.a\	no-	2ee\	no-
4F\	.	.	.	.	.	.	.
4D\	.	2B\	.	.	.	2dd\	.
4E\	.	.	.	4g#X\	.	.	.
=32	=32	=32	=32	=32	=32	=32	=32
2AA/	-bis	2c\	-bis	2e\	-bis	2cc\	-bis
2A\	qui	2c\	qui	2e\	qui	2a\	qui
=33	=33	=33	=33	=33	=33	=33	=33
2G\	tol-	2c#X\	tol-	2e\	tol-	2a\	tol-
2G\	-lis	2c#\	-lis	2e\	-lis	2a\	-lis
=34	=34	=34	=34	=34	=34	=34	=34
4r	.	4r	.	4r	.	4r	.
4F\	pec-	4d\	pec-	4a\	pec-	4a\	pec-
!	!	!LO:LB:g=original	!	!	!	!	!
4E\	-ca-	4c#X\	-ca-	4g\	-ca-	4a\	-ca-
4D\	-ta	4d\	-ta	4f\	-ta	4a\	-ta
=35	=35	=35	=35	=35	=35	=35	=35
2A\	mun-	2c\	mun-	2e\	mun-	2a\	mun-
2AA/	-di	2c\	-di	2e\	-di	2a\	-di
=36	=36	=36	=36	=36	=36	=36	=36
2.C#X/	Sus-	2.e\	Sus-	2.g\	Sus-	2.a\	sus-
4C#/	-ci-	4e\	-ci-	4g\	-ci-	4a\	-ci-
=37	=37	=37	=37	=37	=37	=37	=37
1D	-pe	1d	-pe	1f	-pe	1a	-pe
!LO:LB:g=original	!	!	!	!	!	!	!
=38	=38	=38	=38	=38	=38	=38	=38
4E\	de-	4c#X\	de-	4e\	de-	4a\	de-
4D\	-pre-	4d\	-pre-	4f\	-pre-	4a\	-pre-
4C/	-ca-	4c#\	-ca-	4g\	-ca-	4a\	-ca-
4BB/	-ti-	4d\	-ti-	4f\	-ti-	4a\	-ti-
!	!	!	!	!LO:LB:g=original	!	!LO:LB:g=original	!
=39	=39	=39	=39	=39	=39	=39	=39
2C#X/	-o-	2e\	-o-	2g\	-o-	2b-X\	-o-
2D/	-nem	2d\	-nem	2f\	-nem	2a\	-nem
=40	=40	=40	=40	=40	=40	=40	=40
2A\	no-	2d\	no-	2f\	no-	1a	no-
2AA/	.	2c#X\	.	2e\	.	.	.
!	!	!LO:LB:g=original	!	!	!	!	!
=41	=41	=41	=41	=41	=41	=41	=41
2D\	-stram.	2d\	-bis	2f\	-stram	2a\	-stram
4r	.	4r	.	4r	.	4r	.
4D\	qui	4d\	qui	4f#X\	qui	4a\	qui
=42	=42	=42	=42	=42	=42	=42	=42
!	!	!	!	!LO:SIC:v:s=2f#\	!	!	!
2D\	se-	2cn\	se-	2f\	se-	2a\	se-
!	!	!	!	!LO:SIC:v:s=2f#\	!	!	!
2D\	-des	2c\	-des	2f\	-des	2a\	-des
=43	=43	=43	=43	=43	=43	=43	=43
4r	.	4r	.	4r	.	4r	.
4F#X\	ad	4c\	ad	4d\	ad	4a\	ad
4F#\	dex-	4c\	dex-	4d\	dex-	4a\	dex-
8F#\	-te-	8c\	-te-	8d\	-te-	8a\	-te-
8F#\	-ram	8c\	-ram	8d\	-ram	8a\	-ram
=44	=44	=44	=44	=44	=44	=44	=44
2G\	Pa-	2B\	Pa-	2d\	Pa-	2g\	Pa-
2G\	-tris	2B\	-tris	2d\	-tris	2g\	-tris
!LO:LB:g=original	!	!	!	!	!	!	!
=45	=45	=45	=45	=45	=45	=45	=45
2G\	mi-	2B\	mi-	2d\	mi-	2g\	mi-
2G\	-se-	2B\	-se-	2g\	-se-	2dd\	-se-
=46	=46	=46	=46	=46	=46	=46	=46
2A\	-re-	2c\	-re-	2f#X\	-re-	2cc\	-re-
2B\	-re	2d\	-re	2fn\	-re	2g\	-re
!	!	!	!	!LO:LB:g=original	!	!	!
=47	=47	=47	=47	=47	=47	=47	=47
4c\	no-	4e\	no-	4g\	no-	1g	no-
4G\	.	4d\	.	4f\	.	.	.
4E\	.	2c\	.	4e\	.	.	.
4C\	.	.	.	4f\	.	.	.
!	!	!LO:LB:g=original	!	!	!	!LO:LB:g=original	!
=48	=48	=48	=48	=48	=48	=48	=48
4F\	.	2d\	.	2f\	.	4a\	.
4D\	.	.	.	.	.	4f\	.
4G\	.	4c\	.	4e\	.	2g\	.
4GG/	.	4B\	.	4d\	.	.	.
=49	=49	=49	=49	=49	=49	=49	=49
2C/	-bis.	2c\	-bis	2e\	-bis	2g\	-bis
2r	.	2r	.	2r	.	2r	.
=50	=50	=50	=50	=50	=50	=50	=50
4.c\	Quo-	4.e\	Quo-	4.g\	Quo-	4.cc\	Quo-
8G\	-ni-	8d\	-ni-	8f\	-ni-	8b\	-ni-
4E\	-am	4c\	-am	4e\	-am	4g\	-am
4D\	tu	4d\	tu	4g\	tu	4b\	tu
=51	=51	=51	=51	=51	=51	=51	=51
4C/	so-	8e\L	so-	8g\L	so-	2g/	so-
.	.	8d\	.	8f\	.	.	.
4GG/	.	8d\	.	8f\	.	.	.
.	.	8c\J	.	8e\J	.	.	.
4C/	-lus	4c\	-lus	4e\	-lus	4g/	-lus
4C/	tu	4e\	tu	4g\	tu	4g/	tu
!LO:LB:g=original	!	!	!	!	!	!	!
=52	=52	=52	=52	=52	=52	=52	=52
2C/	so-	4e\	so-	4g\	so-	2g/	so-
.	.	8f\L	.	8a\L	.	.	.
.	.	8e\J	.	8g\J	.	.	.
4BB/	.	4d\	.	4f\	.	4b/	.
4C/	-lus	4c\	-lus	4e\	-lus	4g/	-lus
!	!	!LO:LB:g=original	!	!LO:LB:g=original	!	!	!
=53	=53	=53	=53	=53	=53	=53	=53
4G\	San-	4c\	San-	4e\	San-	4g/	san-
4GG/	-ctus	4B\	-ctus	4d\	-ctus	4g/	-ctus
4r	.	4r	.	4r	.	4r	.
8C/L	tu	8c\L	tu	8e\L	tu	4g/	tu
8BB/J	.	8d\J	.	8f\J	.	.	.
=54	=54	=54	=54	=54	=54	=54	=54
2C/	so-	4e\	so-	4g\	so-	4dd\	so-
.	.	8f\L	.	8a\L	.	2g\	.
.	.	8e\J	.	8g\J	.	.	.
4BB/	.	4d\	.	4f\	.	.	.
4C/	-lus	4c\	-lus	4e\	-lus	4g\	-lus
!	!	!	!	!	!	!LO:LB:g=original	!
=55	=55	=55	=55	=55	=55	=55	=55
8G\	Do-	8c\	Do-	8e\	Do-	8g/	Do-
8GG/	-mi-	8B\	-mi-	8d\	-mi-	8g/	-mi-
4GG/	-nus,	4B\	-nus	4d\	-nus	4g/	-nus
4r	.	4r	.	4r	.	4r	.
4G\	tu	8B\L	tu	8d\L	tu	4b\	tu
.	.	8d\J	.	8f\J	.	.	.
=56	=56	=56	=56	=56	=56	=56	=56
8B\L	so-	2d\	so-	2f\	so-	8dd\L	so-
8G\	.	.	.	.	.	8b\	.
8A\	.	.	.	.	.	8cc\	.
8B\J	.	.	.	.	.	8dd\J	.
4c\	-lus	4c\	-lus	4e\	-lus	4g/	-lus
8c\L	al-	8c\L	al-	8e\L	al-	4g/	al-
8B\J	.	8d\J	.	8f\J	.	.	.
!LO:LB:g=original	!	!LO:LB:g=original	!	!	!	!	!
=57	=57	=57	=57	=57	=57	=57	=57
4.c\	-tiſ-	4.c\	-tiſ-	4.e\	-tiſ-	4.g/	-tiſ-
8G\	-si-	8d\	-si-	8f\	-si-	8a/	-si-
4C/	-mus	4e\	-mus	4g\	-mus	4g/	-mus
4BB/	Je-	4f\	Je-	4a\	Je-	4dd\	Je-
!	!	!	!	!LO:LB:g=original	!	!	!
=58	=58	=58	=58	=58	=58	=58	=58
4C/	.	4e\	-su	4g\	-su	4g\	.
4F\	-su	8f\L	.	8a\L	.	4a\	-su
.	.	8d\J	.	8f\J	.	.	.
4G\	Chri-	4c\	Chri-	4e\	Chri-	2g/	Chri-
4GG/	.	4B\	.	4d\	.	.	.
=59	=59	=59	=59	=59	=59	=59	=59
2C/	-ste.	2c\	-ste	2e\	-ste	2g/	-ste
4r	.	4r	.	4r	.	4r	.
4G\	Cum	4B\	Cum	4d\	Cum	4g/	Cum
!	!	!	!	!	!	!LO:LB:g=original	!
=60	=60	=60	=60	=60	=60	=60	=60
4.c\	San-	2c\	San-	2e\	San-	2.g/	San-
8G\	.	.	.	.	.	.	.
8F\L	.	8B\L	.	8d\L	.	.	.
8E\J	.	8c\J	.	8e\J	.	.	.
8D\L	-cto	8B\L	-cto	8f\L	-ct[o]	4g/	-cto
8C\J	.	8c\J	.	8e\J	.	.	.
=61	=61	=61	=61	=61	=61	=61	=61
4.G\	Spi-	4.B\	Spi-	4.d\	Spi-	4.g/	Spi-
8D\	-ri-	8B\	-ri-	8d\	-ri-	8g/	-ri-
8C/L	-tu	4B\	-tu	4d\	-tu	4g/	-tu
8BB/J	.	.	.	.	.	.	.
8AA/L	in	4B\	in	4d\	in	4g/	in
8GG/J	.	.	.	.	.	.	.
!LO:LB:g=original	!	!	!	!	!	!	!
=62	=62	=62	=62	=62	=62	=62	=62
8C/L	glo-	8c\L	glo-	8e\L	glo-	4g/	glo-
8BB/J	.	8B\J	.	8d\J	.	.	.
8C/	-ri-	8c\	-ri-	8e\	-ri-	8g/	-ri-
8D/	-a	8d\	-a	8f\	-a	8g/	-a
!	!	!LO:LB:g=original	!	!	!	!	!
8C/L	De-	4c\	De-	8e\L	De-	4g/	De-
8E/J	.	.	.	8g\J	.	.	.
8D/L	-i	8B\L	-i	8f\L	-i	4g/	-i
8C/J	.	8c\J	.	8e\J	.	.	.
!	!	!	!	!LO:LB:g=original	!	!	!
=63	=63	=63	=63	=63	=63	=63	=63
4G\	Pa-	4B\	Pa-	4e\	Pa-	4g/	Pa-
4GG/	-tris	4B\	-tris	4d\	-tris	4g/	-tris
2r	.	2r	.	2r	.	2r	.
=64	=64	=64	=64	=64	=64	=64	=64
4G\	a-	4B\	a-	2f\	a-	4dd\	a-
4B\	.	4d\	.	.	.	4g\	.
8c\L	.	4c\	.	4e\	.	2g\	-men
8G\J	.	.	.	.	.	.	.
8E\L	-men	4c\	-men	4e\	-men	.	.
8C\J	.	.	.	.	.	.	.
!	!	!	!	!	!	!LO:LB:g=original	!
=65	=65	=65	=65	=65	=65	=65	=65
8F\L	a-	2B\	a-	8d\L	a-	2f/	a-
8D\	.	.	.	8f\	.	.	.
8E\	.	.	.	8e\	.	.	.
8F\J	.	.	.	8d\J	.	.	.
4G\	.	4c\	.	4e\	.	2g/	.
4GG/	.	4B\	.	4d\	.	.	.
!LO:LB:g=original	!	!	!	!	!	!	!
=66	=66	=66	=66	=66	=66	=66	=66
4C/	-men	4c\	-men	4e\	-men	4g\	-men
*	*	*	*ij	*	*	*	*
4r	.	4d\	a-	4f\	a-	4b\	a-
4r	.	4e\	-men	4g\	-men	4cc\	-men
*	*	*	*Xij	*	*	*	*
4GG/	a-	4d\	a-	4g\	a-	4b\	a-
=67	=67	=67	=67	=67	=67	=67	=67
4C/	-men	4e\	-men	2g\	-men.	2cc\	-men
4r	.	4r	.	.	.	.	.
!LO:TX:t=P:problem=fermata above/below na kresce taktowej	!	!	!	!	!	!LO:TX:t=P:problem=fermata above/below na kresce taktowej	!
2r	.	2r	.	2r	.	2r	.
==	==	==	==	==	==	==	==
*-	*-	*-	*-	*-	*-	*-	*-
!!!system-decoration: [(s1,s2,s3,s4)]
!!!ENC: Andrzej Kubiczek
!!!END: 2021-08-07
!!!ENC: Andrzej Gręziak
!!!END: 2021-07-09
